flaticon/stationery/flask.svg

<svg xmlns="http://www.w3.org/2000/svg" width="32" height="32" viewBox="0 0 24 24">
    <path d="M 19.222656 23.988281 L 4.777344 23.988281 C 3.066406 23.988281 2.605469 22.195312 3.109375 21.292969 L 8.921875 9.667969 L 8.921875 0.511719 C 8.921875 0.226562 9.152344 0 9.433594 0 L 14.566406 0 C 14.847656 0 15.078125 0.226562 15.078125 0.511719 L 15.078125 9.667969 L 20.890625 21.292969 C 21.648438 22.980469 19.992188 24.132812 19.222656 23.988281 Z M 9.941406 1.019531 L 9.941406 9.789062 C 9.941406 9.867188 9.925781 9.945312 9.890625 10.015625 L 4.023438 21.75 C 3.71875 22.332031 4.199219 22.96875 4.777344 22.96875 L 19.222656 22.96875 C 19.613281 23.023438 20.324219 22.511719 19.976562 21.75 L 14.109375 10.015625 C 14.074219 9.945312 14.054688 9.867188 14.054688 9.789062 L 14.054688 1.019531 Z M 9.941406 1.019531"/>
</svg>

<svg xmlns="http://www.w3.org/2000/svg" width="32" height="32" viewBox="0 0 24 24">
    <path d="M19.223 23.988H4.777c-1.71 0-2.172-1.793-1.668-2.695L8.922 9.668V.512c0-.285.23-.512.512-.512h5.132c.282 0 .512.227.512.512v9.156l5.813 11.625c.757 1.687-.899 2.84-1.668 2.695zM9.94 1.02v8.77a.506.506 0 0 1-.05.226L4.023 21.75c-.304.582.176 1.219.754 1.219h14.446c.39.054 1.101-.457.754-1.219l-5.868-11.734a.51.51 0 0 1-.054-.227V1.02zm0 0"/>
</svg>
